svgs/regular/vault.svg

<svg xmlns="http://www.w3.org/2000/svg" viewBox="0 0 576 512"><!--! Font Awesome Pro 6.5.1 by @fontawesome - https://fontawesome.com License - https://fontawesome.com/license (Commercial License) Copyright 2023 Fonticons, Inc. --><path d="M64 48c-8.8 0-16 7.2-16 16V416c0 8.8 7.2 16 16 16H512c8.8 0 16-7.2 16-16V64c0-8.8-7.2-16-16-16H64zM0 64C0 28.7 28.7 0 64 0H512c35.3 0 64 28.7 64 64V416c0 35.3-28.7 64-64 64v8c0 13.3-10.7 24-24 24s-24-10.7-24-24v-8H112v8c0 13.3-10.7 24-24 24s-24-10.7-24-24l0-8c-35.3 0-64-28.7-64-64V64zM320 240a96 96 0 1 0 -192 0 96 96 0 1 0 192 0zM80 240a144 144 0 1 1 288 0A144 144 0 1 1 80 240zm144-48a48 48 0 1 1 0 96 48 48 0 1 1 0-96zm272-16c0 17.8-9.7 33.3-24 41.6V328c0 13.3-10.7 24-24 24s-24-10.7-24-24V217.6c-14.3-8.3-24-23.8-24-41.6c0-26.5 21.5-48 48-48s48 21.5 48 48z"/></svg>

<svg xmlns="http://www.w3.org/2000/svg" viewBox="0 0 576 512"><!--! Font Awesome Pro 6.1.1 by @fontawesome - https://fontawesome.com License - https://fontawesome.com/license (Commercial License) Copyright 2022 Fonticons, Inc. --><path d="M176 240C176 213.5 197.5 192 224 192C250.5 192 272 213.5 272 240C272 266.5 250.5 288 224 288C197.5 288 176 266.5 176 240zM368 240C368 319.5 303.5 384 224 384C144.5 384 80 319.5 80 240C80 160.5 144.5 96 224 96C303.5 96 368 160.5 368 240zM224 144C170.1 144 128 186.1 128 240C128 293 170.1 336 224 336C277 336 320 293 320 240C320 186.1 277 144 224 144zM496 176C496 193.8 486.3 209.3 472 217.6V328C472 341.3 461.3 352 448 352C434.7 352 424 341.3 424 328V217.6C409.7 209.3 400 193.8 400 176C400 149.5 421.5 128 448 128C474.5 128 496 149.5 496 176V176zM0 64C0 28.65 28.65 0 64 0H512C547.3 0 576 28.65 576 64V416C576 451.3 547.3 480 512 480V488C512 501.3 501.3 512 488 512C474.7 512 464 501.3 464 488V480H112V488C112 501.3 101.3 512 88 512C74.75 512 64 501.3 64 488V480C28.65 480 0 451.3 0 416V64zM48 64V416C48 424.8 55.16 432 64 432H512C520.8 432 528 424.8 528 416V64C528 55.16 520.8 48 512 48H64C55.16 48 48 55.16 48 64z"/></svg>
